X:42
T:Red Lion Hornpipe. WM.042
M:3/2
L:1/8
Q:1/2=100
S:Wm.Mittell’s MS, New Romney,Kent,1799
R:.Triple Hornpipe
O:England
A:Kent
Z:vmp.Chris Partington
K:D
dfdf FGAF G2E2|dfdf Adce d2D2|dfdf FGAFG2a2|\
gfed Adced2D2:|!
|:dfaf dfed{d}c2{B}A2|FAdA BABG{G}F2{E}D2|\
dfaf dfedc2A2|FAdF Ddced4:|

